X:1
T:Standin In The Need of Prayer
T:Git On Board Little Children
T:Copyright 1918 by Homer A. Rodeheaver
T:Rodeheaver's Plantation Melodies
T:Rodeheaver's Plantation Melodies
Z:Rodeheaver's Plantation Melodies
%%score [ 1 2 3 4 ]
L:1/8
Q:1/4=80
M:2/4
K:Ab
V:1 treble nm="Soprano" snm="S."
V:2 treble nm="Alto" snm="A."
V:3 bass nm="Tenor" snm="T."
V:4 bass nm="Bass" snm="B."
V:1
 c<A | G3 A/A/ | AA A<A | E3 A/A/ | AA c<A | F3 A/A/ | A A2 B | cc B/B/B | A2!fine! | e2 | %10
w: Git on|||||||||De|
 E>F A>A | A A2 E | F<A A>A | (F E2) E | EF AA | AA- A>A | c<c B<B | A2!D.C.! |] %18
w: Gos- pel train's a-|com- in', I|hear it jus' at|han'- . I|hear the car- wheels|rum- blin'- . An'|ro- llin' thro' de|lan'.|
V:2
 z2 | D3 F/F/ | FF F<F | C3 E/E/ | EE A<E | D3 F/F/ | F F2 F | EE G/G/G | E2 | z2 | z4 | z4 | z4 | %13
w: |board, lit- tle|chil- dren, Git on|board, lit- tle|chil- dren. Git on|board, lit- tle|chil- dren, Dere's|room for man- y a|mo'.|||||
 z4 | z4 | z4 | z4 | z2 |] %18
w: |||||
V:3
 z2 | A,3 D/D/ | DD D<D | C3 C/C/ | CC C<C | A,3 D/D/ | D D2 D | A,A, D/D/D | C2 | z2 | z4 | z4 | %12
 z4 | z4 | z4 | z4 | z4 | z2 |] %18
V:4
 z2 | D,3 D,/D,/ | D,D, D,<D, | A,,3 A,,/A,,/ | A,,A,, A,,<A,, | D,3 D,/D,/ | D, D,2 D, | %7
 E,E, E,/E,/E, | A,,2 | z2 | z4 | z4 | z4 | z4 | %14
"_1. De Gospel train's a-comin, I hear it jus' at han, I hear de car-wheels rumblin', An' rollin' thro' de lan'.\n2. I hear de train a-comin', She's coming roun' de curve, She's loosened all her steam an' brakes, An' strainin' eb'ry nerve.\n3. De fare is cheap, an' all can go, De rich an' poor are dere, No second class aboard dis train, No difference in de fare." z4 | %15
 z4 | z4 | z2 |] %18

